src/seti-icons/icons/reasonml.svg

<svg height="32" width="32" xmlns="http://www.w3.org/2000/svg" fill="currentColor"><path d="M6 6h20v20H6zm7.002 12.177v2.349h1.453c.808 0 1.278-.415 1.278-1.191 0-.754-.47-1.158-1.278-1.158zm5.911-1.595h6.042v1.595h-4.043v1.431h3.649v1.584l-3.649.011v1.443h4.152v1.595h-6.151zm-1.049 7.659h-2.262l-1.114-2.12h-1.486v2.12h-2v-7.659h3.442c2.032 0 3.19.983 3.19 2.687 0 1.159-.48 2.011-1.365 2.47z" fill-rule="evenodd"/></svg>

<svg viewBox="0 0 32 32" xmlns="http://www.w3.org/2000/svg" fill="currentColor"><path d="M6 6V26H26V6H6ZM13.002 18.177V20.526H14.455C15.263 20.526 15.733 20.111 15.733 19.335C15.733 18.581 15.263 18.177 14.455 18.177H13.002ZM18.913 16.582H24.955V18.177H20.912V19.608H24.561V21.192L20.912 21.203V22.646H25.064V24.241H18.913V16.582ZM17.864 24.241H15.602L14.488 22.121H13.002V24.241H11.002V16.582H14.444C16.476 16.582 17.634 17.565 17.634 19.269C17.634 20.428 17.154 21.28 16.269 21.739L17.864 24.241Z"/></svg>
